X: 55
T: Missa De Sancto Antonio / Sanctus
N: Derived from Rue1012d-Missa_De_Sancto_Antonio-Sanctus.krn
C: Pierre de la Rue
%%abc-version 2.0
%%abcx-abcm2ps-target-version 5.9.1 (29 Sep 2008)
%%abc-creator hum2abc beta
%%abcx-conversion-date 2019/02/17 08:01:11
%%abc-edited-by Jesse Rodin
%%abc-edited-by Chris Gage 01-11-2013
%%abcx-initial-encoding-date 2013/07/16/
%%humdrum-veritas 1367685802
%%humdrum-veritas-data 1060942439
%%linebreak <none>
%%barnumbers 0
L: 1/4
M: 3/1
Q: 1/2=120
%%staves [1 2 3 4]
V: 1 clef=treble
V: 2 clef=treble-8
V: 3 clef=treble-8
V: 4 clef=bass
K: C
[V:1] z12 | 
[V:2] B8d4 | 
[V:3] z12 | 
[V:4] E,8F,4 | 
[V:1] z12 | 
[V:2] e2g4fed4 | 
[V:3] z12 | 
[V:4] E,8G,4 | 
[V:1] E8G4 | 
[V:2] c4z4d4 | 
[V:3] z12 | 
[V:4] A,2C4B,A,B,4 | 
[V:1] A4c6BA | 
[V:2] e2f3ec2e2f2 | 
[V:3] z12 | 
[V:4] A,8A,4 | 
[V:1] B8E3F | 
[V:2] g2fed4c4- | 
[V:3] z12 | 
[V:4] G,8A,3G, | 
[V:1] G2A3GE2F2A2 | 
[V:2] c4c4d4- | 
[V:3] z12 | 
[V:4] E,2F,3G,A,2D,4 | 
[V:1] B2d3c/B/A2G4- | 
[V:2] d4d4e3d | 
[V:3] z12 | 
[V:4] z4F,4E,3F, | 
[V:1] G4G4A2c2- | 
[V:2] B2c3de2A3B | 
[V:3] z12 | 
[V:4] G,2C,2E,4F,2A,2- | 
[V:1] c2B3AA4^G2 | 
[V:2] c2d3cA2B4 | 
[V:3] z12 | 
[V:4] A,2G,3A,F,2E,4 | 
[V:1] A12 | 
[V:2] A8z4 | 
[V:3] c12- | 
[V:4] A,8z4 | 
[V:1] z4z4e4- | 
[V:2] a8e4- | 
[V:3] c12 | 
[V:4] A,12 | 
[V:1] e8B4- | 
[V:2] e4g8 | 
[V:3] B12- | 
[V:4] E,12 | 
[V:1] B4d8 | 
[V:2] d6efg4 | 
[V:3] B12 | 
[V:4] G,12 | 
[V:1] e4e2c3de2 | 
[V:2] g2e3fg2c4 | 
[V:3] c8A4 | 
[V:4] C,8z4 | 
[V:1] d2B4AGA4 | 
[V:2] d4B2B4A2 | 
[V:3] B8d4 | 
[V:4] G,6E,2F,4 | 
[V:1] G8G4 | 
[V:2] B6G2G4 | 
[V:3] e12- | 
[V:4] E,8E,4 | 
[V:1] c3de2e4dc | 
[V:2] g8g4 | 
[V:3] e8e4 | 
[V:4] C,4C,2C,3D,E,F, | 
[V:1] B3ABcd3cBA | 
[V:2] g4G2A4A2 | 
[V:3] d3cdef3edc | 
[V:4] G,4G,2D,4D,2 | 
[V:1] G2e2d2c3BB2 | 
[V:2] B6G2g4 | 
[V:3] d2G2B2c2d4 | 
[V:4] G,8G,4 | 
[V:1] c4z4c4 | 
[V:2] e2a4g3ef2 | 
[V:3] c8c4 | 
[V:4] C,2C3B,A,G,A,4 | 
[V:1] d4d2B4AG | 
[V:2] z2g2d2g4g2 | 
[V:3] B8d4- | 
[V:4] G,8G,4 | 
[V:1] A4A2B3cA2 | 
[V:2] f3ef2g4^f2 | 
[V:3] d12 | 
[V:4] D,4z4D,4 | 
[V:1] G3AB2c3BAG | 
[V:2] g8c4 | 
[V:3] d4d2e3dcB | 
[V:4] G,3F,E,D,C,4F,2- | 
[V:1] F2G4FED4 | 
[V:2] z4z2c4B2 | 
[V:3] A2G2B2c2d4 | 
[V:4] F,2E,4D,C,G,4 | 
[V:1] C12 | 
[V:2] c2BAG8 | 
[V:3] e8z2e2 | 
[V:4] C,8z2G,2 | 
[V:1] z12 | 
[V:2] z2B2c2B4A2 | 
[V:3] f2e2f2e4d2 | 
[V:4] A,2G,2A,2E,2F,4 | 
[V:1] z2B2c2B2cBAG | 
[V:2] B2e2c2g3fe2- | 
[V:3] e12 | 
[V:4] E,2G,2A,2G,2A,G,F,E, | 
[V:1] A4G4z2B2 | 
[V:2] e2d2e3d/c/BAB2 | 
[V:3] z4z4e4- | 
[V:4] F,4E,8 | 
[V:1] c2e3dcBA4 | 
[V:2] A6G2F4 | 
[V:3] e4c4d4 | 
[V:4] A,,4z4z4 | 
[V:1] z2G2A2c3BAG | 
[V:2] E4z4c4 | 
[V:3] e4d2c2A4 | 
[V:4] z2E,2F,2A,3G,F,E, | 
[V:1] F2E4A3^GG2 | 
[V:2] d2e2c2d2e4 | 
[V:3] B2c4BAB4 | 
[V:4] D,2C,2F,4E,4 | 
[V:1] A12 ||  
[V:2] e12 ||  
[V:3] A12 ||  
[V:4] A,,12 ||  
[V:1]  [K:C] [K:clef=treble][M:3/1]E8G4 | 
[V:2]  [K:C] [K:clef=treble-8][M:3/1]z12 | 
[V:3]  [K:C] [K:clef=treble-8][M:3/1]z12 | 
[V:4]  [K:C] [K:clef=bass][M:3/1]z12 | 
[V:1] A3Bc2c4BA | 
[V:2] A8c4 | 
[V:3] z12 | 
[V:4] z12 | 
[V:1] B2A4d2c2d2- | 
[V:2] d2f4ede2d2- | 
[V:3] z12 | 
[V:4] z12 | 
[V:1] d2cBA2G2B2c2 | 
[V:2] d2g2f2g4fe | 
[V:3] z12 | 
[V:4] z12 | 
[V:1] d2e4dcB2c2 | 
[V:2] d2c2e2f2g2a2- | 
[V:3] z12 | 
[V:4] z12 | 
[V:1] A4G2A4GF | 
[V:2] a2gfe2f2d4 | 
[V:3] z12 | 
[V:4] z12 | 
[V:1] E4z4B4 | 
[V:2] c2B2e2dcB4 | 
[V:3] z12 | 
[V:4] E,8G,4 | 
[V:1] c4B2A3B/c/d2 | 
[V:2] A4z4z4 | 
[V:3] z12 | 
[V:4] A,4B,2C2D3C | 
[V:1] c2B3AA4^G2 | 
[V:2] z12 | 
[V:3] z12 | 
[V:4] A,2G,2A,2C2B,4 | 
[V:1] A8e3c | 
[V:2] e3cf2e3cc2 | 
[V:3] z12 | 
[V:4] A,12 | 
[V:1] f2e3cc2d2c2 | 
[V:2] d2c2A4z2e2 | 
[V:3] z12 | 
[V:4] z4A,3F,_B,2A,2- | 
[V:1] A4B2A4d2- | 
[V:2] f4e2f4ed | 
[V:3] z12 | 
[V:4] A,F,F,2G,2F,2D,4 | 
[V:1] dcc2d2A2B3c | 
[V:2] e4d4z4 | 
[V:3] z12 | 
[V:4] z2A,2B,3CDCB,A, | 
[V:1] dcBAG3ABAGF | 
[V:2] z2d2e3fgfed | 
[V:3] z12 | 
[V:4] G,4z4z2G,2 | 
[V:1] E4z2G2A3B | 
[V:2] c3dedcBA4 | 
[V:3] z12 | 
[V:4] A,3B,CB,A,G,F,3G, | 
[V:1] cBAGF3GAGFE | 
[V:2] z2c2d3efedc | 
[V:3] z12 | 
[V:4] A,G,F,E,D,4D,2G,2- | 
[V:1] D2G4^F2G4- | 
[V:2] B2G2A4G4- | 
[V:3] z12 | 
[V:4] G,F,E,2D,4z2G,2- | 
[V:1] G2FED4C4 | 
[V:2] G4G4z2c2- | 
[V:3] z12 | 
[V:4] G,A,B,CD2B,2C2A,2- | 
[V:1] z12 | 
[V:2] cdefg2e2f4 | 
[V:3] z12 | 
[V:4] A,2G,F,E,4D,2A,2- | 
[V:1] z4z2G3ABc | 
[V:2] e2d3Be4dc | 
[V:3] z12 | 
[V:4] A,2B,3G,C3B,A,2- | 
[V:1] d2B2c3BB2A2- | 
[V:2] B4z2A2G2A2 | 
[V:3] z12 | 
[V:4] A,2G,2A,4E,2F,2 | 
[V:1] A2^G2A2c3Bc2 | 
[V:2] B4A2e3de2 | 
[V:3] z12 | 
[V:4] E,4A,8 | 
[V:1] B2A2c2BAG2c2- | 
[V:2] d2c2e2dcB2A2 | 
[V:3] z12 | 
[V:4] z4z4z2A,2- | 
[V:1] cBc2B2A2c2BA | 
[V:2] e4e2f4d2 | 
[V:3] z12 | 
[V:4] A,G,A,2G,2F,2A,2G,F, | 
[V:1] GABcd4c4- | 
[V:2] e4z4ABcd | 
[V:3] z12 | 
[V:4] E,4D,E,F,G,A,4- | 
[V:1] c2BAc2B4A2- | 
[V:2] e3fe3dc2A2 | 
[V:3] z12 | 
[V:4] A,2G,F,A,2G,2A,4 | 
[V:1] A2^G2A8 ||  
[V:2] B4A8 ||  
[V:3] z12 ||  
[V:4] E,4A,,8 ||  
[V:1]  [K:C] [K:clef=treble][M:2/1]A8- | 
[V:2]  [K:C] [K:clef=treble-8][M:2/1]e8 | 
[V:3]  [K:C] [K:clef=treble-8][M:2/1]c8- | 
[V:4]  [K:C] [K:clef=bass][M:2/1]A,8- | 
[V:1] A4E4 | 
[V:2] e4a4- | 
[V:3] c8- | 
[V:4] A,8 | 
[V:1] E8 | 
[V:2] a4g4- | 
[V:3] c8 | 
[V:4] A,4E,4 | 
[V:1] E4G4- | 
[V:2] g4e4 | 
[V:3] B8- | 
[V:4] E,8- | 
[V:1] G2FED2G2- | 
[V:2] g6fe | 
[V:3] B8- | 
[V:4] E,4G,4- | 
[V:1] GABcd4 | 
[V:2] d2g4f2 | 
[V:3] B8 | 
[V:4] G,2F,E,D,4 | 
[V:1] G8 | 
[V:2] e6f2 | 
[V:3] c8- | 
[V:4] C,6D,2 | 
[V:1] G4A4 | 
[V:2] g4f3g | 
[V:3] c8- | 
[V:4] E,2C,2F,4- | 
[V:1] A2c4BA | 
[V:2] a2g4f2 | 
[V:3] c8 | 
[V:4] F,2G,2A,4 | 
[V:1] B4A4 | 
[V:2] g4e4 | 
[V:3] d4c4 | 
[V:4] G,4A,4 | 
[V:1] A2d4cB | 
[V:2] f6ed | 
[V:3] d8 | 
[V:4] D,8 | 
[V:1] c4d4 | 
[V:2] c4f4 | 
[V:3] e4d4 | 
[V:4] A,4D,4 | 
[V:1] B4e4- | 
[V:2] g8 | 
[V:3] e8 | 
[V:4] G,4E,4 | 
[V:1] e2dcd4 | 
[V:2] z4d4 | 
[V:3] f8 | 
[V:4] z4B,4 | 
[V:1] G8 | 
[V:2] e2c3def | 
[V:3] e8- | 
[V:4] C6B,A, | 
[V:1] z4B4 | 
[V:2] g2a3fg2 | 
[V:3] e8 | 
[V:4] G,2F,2E,4 | 
[V:1] c6BA | 
[V:2] c8 | 
[V:3] e6dc | 
[V:4] z8 | 
[V:1] G2A4G2 | 
[V:2] d4e4 | 
[V:3] B2A2B4 | 
[V:4] z4E,4 | 
[V:1] A6GF | 
[V:2] c4cdef | 
[V:3] A8 | 
[V:4] F,6E,D, | 
[V:1] E2A4B2- | 
[V:2] g2f3ed2 | 
[V:3] c4d4 | 
[V:4] C,2F,2D,2G,2- | 
[V:1] B2G2G4 | 
[V:2] g6fe | 
[V:3] e6B2 | 
[V:4] G,2E,2E,4 | 
[V:1] z2G4A2- | 
[V:2] d2e4c2 | 
[V:3] B4z2c2 | 
[V:4] z2E,2C,2F,2 | 
[V:1] A2B2G2A2- | 
[V:2] f2d2g2f2- | 
[V:3] d4e2c2 | 
[V:4] D,2G,2E,2F,2- | 
[V:1] A2B2c2A2- | 
[V:2] f2f2g2f2 | 
[V:3] d4e2c2 | 
[V:4] F,E,D,2C,2F,2- | 
[V:1] Add4^c2 | 
[V:2] a8 | 
[V:3] d4e4 | 
[V:4] F,E,D,2A,4 | 
[V:1] d4d2B2- | 
[V:2] f4d2g2- | 
[V:3] d4B4 | 
[V:4] D,4G,4 | 
[V:1] B2c4BA | 
[V:2] g2e4f2- | 
[V:3] e4c2d2- | 
[V:4] E,2A,4F,2 | 
[V:1] B2G2A4 | 
[V:2] f2e3dd2 | 
[V:3] dBB4A2 | 
[V:4] G,2E,2F,4 | 
[V:1] G4B4- | 
[V:2] e4z2e2 | 
[V:3] B6c2 | 
[V:4] E,8 | 
[V:1] B2A2A4- | 
[V:2] f3ed2c2 | 
[V:3] d3cB2A2 | 
[V:4] D,6F,2 | 
[V:1] A4^G4 | 
[V:2] e8- | 
[V:3] B8 | 
[V:4] E,8 | 
[V:1] A8 ||  
[V:2] e8 ||  
[V:3] A8 ||  
[V:4] A,,8 ||  
[V:1]  [K:C] [K:clef=treble][M:2/1]z8 | 
[V:2]  [K:C] [K:clef=treble-8][M:2/1]z8 | 
[V:3]  [K:C] [K:clef=treble-8][M:2/1]A4c3d | 
[V:4]  [K:C] [K:clef=bass][M:2/1]A,8- | 
[V:1] z8 | 
[V:2] z8 | 
[V:3] e2f4e2- | 
[V:4] A,8 | 
[V:1] z8 | 
[V:2] z8 | 
[V:3] e2dcd4 | 
[V:4] B,8 | 
[V:1] A4c3d | 
[V:2] z8 | 
[V:3] c8- | 
[V:4] A,8- | 
[V:1] e2f4e2- | 
[V:2] A4c3d | 
[V:3] c8 | 
[V:4] A,8 | 
[V:1] e2dcB4 | 
[V:2] e2f2g2e2 | 
[V:3] z8 | 
[V:4] G,8 | 
[V:1] A2d3cBA | 
[V:2] fedcd4 | 
[V:3] z8 | 
[V:4] F,8 | 
[V:1] G8- | 
[V:2] e2dcB4 | 
[V:3] e8- | 
[V:4] E,8 | 
[V:1] G8 | 
[V:2] c3BG2c2- | 
[V:3] e8 | 
[V:4] C,8 | 
[V:1] z4d4 | 
[V:2] c2BAB4 | 
[V:3] f8 | 
[V:4] D,8 | 
[V:1] e6dc | 
[V:2] c6BA | 
[V:3] e8- | 
[V:4] C,4C,D,E,F, | 
[V:1] B2c2B2G2 | 
[V:2] G3AB2c2 | 
[V:3] e8 | 
[V:4] G,2C,2G,2E,2 | 
[V:1] B2A4GF | 
[V:2] B4A4 | 
[V:3] d8 | 
[V:4] G,2D,2F,3G, | 
[V:1] E8 | 
[V:2] z4a4 | 
[V:3] c8 | 
[V:4] A,8 | 
[V:1] e8- | 
[V:2] g8- | 
[V:3] B8 | 
[V:4] E,8- | 
[V:1] e8 | 
[V:2] g8 | 
[V:3] G8 | 
[V:4] E,8 | 
[V:1] f8 | 
[V:2] f8 | 
[V:3] A8 | 
[V:4] D,8 | 
[V:1] e8- | 
[V:2] g4e4- | 
[V:3] B4B2c2- | 
[V:4] E,3F,G,2A,2- | 
[V:1] e8 | 
[V:2] e4e4 | 
[V:3] c2BAB2c2 | 
[V:4] A,2G,F,G,2A,2 | 
[V:1] d8 | 
[V:2] f2d3ef2 | 
[V:3] d4B2d2 | 
[V:4] D,2G,3F,D,2 | 
[V:1] c8 | 
[V:2] e4f4 | 
[V:3] A2c3Bc2 | 
[V:4] A,4A,4 | 
[V:1] B4G4 | 
[V:2] g8 | 
[V:3] d4e4- | 
[V:4] G,4E,4 | 
[V:1] A8 | 
[V:2] c4f4 | 
[V:3] e2c2d4 | 
[V:4] F,4D,4 | 
[V:1] G8- | 
[V:2] e8- | 
[V:3] B2c2B2c2- | 
[V:4] E,4E,2C,2- | 
[V:1] G8 | 
[V:2] e8- | 
[V:3] c2BAB4 | 
[V:4] C,2D,2E,4 | 
[V:1] A8 ||  
[V:2] e8 ||  
[V:3] A8 ||  
[V:4] A,,8 ||  
[V:1]  [K:C] [K:clef=treble][M:2/1]z8 | 
[V:2]  [K:C] [K:clef=treble-8][M:2/1]A4B2A2- | 
[V:3]  [K:C] [K:clef=treble-8][M:2/1]z8 | 
[V:4]  [K:C] [K:clef=bass][M:2/1]z8 | 
[V:1] A4B2A2- | 
[V:2] A2d4c2 | 
[V:3] z8 | 
[V:4] z8 | 
[V:1] A2d4c2 | 
[V:2] f4e4 | 
[V:3] z8 | 
[V:4] z8 | 
[V:1] f4e4 | 
[V:2] z2A3Bc2 | 
[V:3] z8 | 
[V:4] z8 | 
[V:1] z2A3Bc2 | 
[V:2] d2c4BA | 
[V:3] z8 | 
[V:4] z8 | 
[V:1] d2c4BA | 
[V:2] G2A3Bcd | 
[V:3] z8 | 
[V:4] z8 | 
[V:1] G2A3Bcd | 
[V:2] e2f2d4 | 
[V:3] z8 | 
[V:4] z8 | 
[V:1] e2f2d3c | 
[V:2] c2d3cBA | 
[V:3] z8 | 
[V:4] z8 | 
[V:1] BAA4^G2 | 
[V:2] G2A2B4 | 
[V:3] z8 | 
[V:4] z8 | 
[V:1] A8- | 
[V:2] A4z2d2 | 
[V:3] z8 | 
[V:4] z8 | 
[V:1] A8 | 
[V:2] c2f3edc | 
[V:3] z8 | 
[V:4] z8 | 
[V:1] z2A2G2c2- | 
[V:2] d2A2B2A2- | 
[V:3] z8 | 
[V:4] z8 | 
[V:1] cBAGA2E2 | 
[V:2] A2c3Be2- | 
[V:3] z8 | 
[V:4] z8 | 
[V:1] F2EDC4 | 
[V:2] e2d2e2g2- | 
[V:3] z8 | 
[V:4] z8 | 
[V:1] z2G2A2B2 | 
[V:2] g2e2f2ed | 
[V:3] z8 | 
[V:4] z8 | 
[V:1] E4F2E2- | 
[V:2] c4d2e2 | 
[V:3] z8 | 
[V:4] z8 | 
[V:1] E2A2G2c2- | 
[V:2] A4B2A2- | 
[V:3] z8 | 
[V:4] z8 | 
[V:1] c2BAG2A2- | 
[V:2] A2d2c2f2- | 
[V:3] z8 | 
[V:4] z8 | 
[V:1] AGFEF4 | 
[V:2] fee4d2 | 
[V:3] z8 | 
[V:4] z8 | 
[V:1] E4z2G2- | 
[V:2] e8 | 
[V:3] z8 | 
[V:4] z8 | 
[V:1] G2EFG2A2- | 
[V:2] z2e4f2 | 
[V:3] z8 | 
[V:4] z8 | 
[V:1] A2A2B2GA | 
[V:2] def2g4 | 
[V:3] z8 | 
[V:4] z8 | 
[V:1] B2c4c2 | 
[V:2] g2a2fga2 | 
[V:3] z8 | 
[V:4] z8 | 
[V:1] d2Bcd2G2- | 
[V:2] d4d2e2 | 
[V:3] z8 | 
[V:4] z8 | 
[V:1] G2G2A2c2- | 
[V:2] cde2A4 | 
[V:3] z8 | 
[V:4] z8 | 
[V:1] c2B2c2B2- | 
[V:2] e8- | 
[V:3] z8 | 
[V:4] z8 | 
[V:1] BAGFE4 | 
[V:2] e8 | 
[V:3] z8 | 
[V:4] z8 | 
[V:1] z2c4AB | 
[V:2] z2e4cd | 
[V:3] z8 | 
[V:4] z8 | 
[V:1] c2B3AGF | 
[V:2] e2d3cBA | 
[V:3] z8 | 
[V:4] z8 | 
[V:1] E2A4^G2 | 
[V:2] G2A2B4 | 
[V:3] z8 | 
[V:4] z8 | 
[V:1] A8 ||  
[V:2] A8 ||  
[V:3] z8 ||  
[V:4] z8 ||  



